X: 2356
T: WOODS HORNPIPE
%R: hornpipe, reel
B: James Kerr "Merry Melodies" v.2 p.39 #356
Z: 2016 John Chambers <jc:trillian.mit.edu>
M: C
L: 1/8
K: G
(3(DEF) |\
G2G2 G2(Bc) | dBdg dBAG |\
edcB cBAG |[1,3 FGAB A2 :|[2 FGAB G2 :|
|:\
(Bc) |\
dBdg dBdg | eceg eceg |\
[1,3 edcB cBAG | FGAB A2 :|\
[2,4 gfed cBAG | D2G2 G2 :|

%%sep 1 1 500
%%sep 1 1 500

